public/svg/dress5.svg

<svg width="211" height="240" viewBox="0 0 211 240" fill="none" xmlns="http://www.w3.org/2000/svg">
<path fill-rule="evenodd" clip-rule="evenodd" d="M160.034 217.904C166.157 217.904 172.219 218.766 177.853 219.241C177.853 221.362 178.183 222.032 178.183 224.256C178.183 228.083 178.721 232.211 176.288 235.039C174.98 236.558 174.419 237.447 172.243 237.961C168.736 235.582 162.02 222.405 160.034 217.904ZM178.843 209.881C180.979 209.881 184.286 210.842 186.3 211.352C188.843 211.998 190.987 212.664 193.361 213.224C193.307 215.686 191.875 216.4 189.861 217.033C186.624 218.051 183.277 217.904 179.832 217.904C179.832 216.928 179.061 210.376 178.843 209.881ZM155.415 208.879L171.865 208.927C173.167 209.073 175.523 209.434 176.863 209.547C176.916 211.979 177.523 213.72 177.523 217.57L164.005 216.556C162.395 216.507 160.668 216.567 159.045 216.567L156.291 211C156.222 210.861 155.894 210.213 155.849 210.11C155.643 209.642 155.515 209.104 155.415 208.879ZM76.5526 212.556C72.9355 212.556 70.4893 212.764 67.0182 211.518C64.7257 210.695 64.0138 209.623 64.0138 207.207C64.0138 202.277 72.2222 191.213 74.8087 187.724L79.7483 181.363C80.4393 180.494 80.9133 179.969 81.5484 179.175L93.7892 164.833C94.4731 164.084 95.0527 163.569 95.7768 162.835L103.089 154.866C103.975 153.705 116.871 140.112 118.459 139.683C118.877 141.501 119.456 142.228 120.104 143.699L133.498 170.578C134.951 173.037 135.946 175.512 137.406 177.984L151.189 204.468C152.349 206.394 153.188 207.441 152.076 207.805L128.047 209.233C120.877 209.79 110.668 210.715 103.933 210.878L76.5526 212.556ZM71.2731 163.751L70.9431 164.419L71.2731 163.751ZM71.603 163.417L71.2731 163.751L71.603 163.417ZM165.644 148.04C166.858 149.454 178.003 171.751 179.173 174.114L188.299 193.95C192.055 202.465 191.863 203.602 193.691 211.553C191.051 211.493 183.531 208.544 178.843 208.544C177.366 202.121 176.779 188.878 173.83 176.852L165.644 148.04ZM165.644 148.04L165.265 147.388L165.644 148.04ZM119.448 138.346L144.856 112.272C145.343 113.204 145.681 113.648 146.24 114.547L159.722 136.991C161.561 140.205 166.689 156.435 167.884 160.813C171.868 175.414 174.53 184.895 175.882 200.847C176.095 203.362 176.533 205.397 176.533 208.21C171.497 207.021 160.791 207.542 154.425 207.542L121.54 142.912C120.736 141.31 120.221 139.825 119.448 138.346ZM62.0339 207.542C62.0339 216.105 75.6709 214.192 80.514 214.229C84.0466 214.255 89.3281 213.737 92.4821 213.317L147.155 209.202C149.78 209.209 151.031 208.879 153.435 208.879L157.186 216.506C123.729 216.707 95.8587 230.273 51.4751 230.273C48.3883 230.273 43.11 229.703 40.8642 228.988C33.8403 226.751 39.2357 216.288 41.3559 211.999C45.5001 203.615 58.941 182.879 65.0537 174.499L80.889 153.77C84.5533 149.212 88.1511 144.772 92.3114 140.605C93.9655 138.948 95.9672 136.155 98.2813 134.285L106.171 126.901C106.749 126.359 107.07 125.93 107.648 125.388C108.399 124.683 110.42 122.845 111.199 122.635C111.362 124.622 117.035 136.127 117.469 138.012C116.225 139.893 111.692 144.031 109.797 145.951L89.1805 168.187C88.4739 168.93 87.8578 169.414 87.2088 170.201L83.732 174.367C82.4372 175.769 81.2236 177.103 80.0382 178.648C74.559 185.787 71.9877 188.619 66.7188 196.576C65.6425 198.201 64.812 199.567 63.8998 201.409C63.2688 202.684 62.0339 205.895 62.0339 207.542ZM160.694 132.997L164.07 137.266C165.321 138.815 166.298 140.234 167.548 141.766L174.368 150.568C176.648 153.64 178.868 156.406 181.196 159.362C190.635 171.347 208.87 194.902 208.87 210.55C208.87 216.465 197.549 212.743 195.341 212.221C195.341 202.228 188.003 189.664 184.313 180.606L174.989 161.638C171.885 156.02 168.001 147.767 165.123 142.884L161.468 135.891C161.077 134.784 160.844 134.178 160.694 132.997ZM157.395 128.986C157.427 128.953 157.493 129.039 157.493 129.086L157.395 128.986ZM156.735 127.983L156.833 128.083C156.827 128.076 156.702 128.016 156.735 127.983ZM155.415 122.635L155.794 123.286L155.415 122.635ZM71.603 163.417C71.9521 161.899 91.8751 130.559 94.3044 126.913L96.5323 123.487C98.0412 121.203 103.976 111.219 105.26 110.266C105.964 113.328 110.147 118.782 110.209 121.632C109.084 121.936 103.743 127.388 102.241 128.602L80.6161 152.156L71.603 163.417ZM22.4379 192.833C22.7796 188.672 35.5115 165.442 38.6028 160.739C44.1324 152.327 48.8039 144.997 54.8653 136.766C56.1159 135.068 57.1279 133.633 58.353 131.943L65.0537 122.685C66.2169 121.091 67.1739 119.578 68.3498 118.002C69.3536 116.656 71.0865 113.849 71.933 113.275C71.6307 114.422 69.8576 117.304 69.1877 118.516C68.6472 119.494 68.3945 120.191 67.8649 121.188C67.3122 122.228 66.9796 122.63 66.4296 123.745L52.482 150.063C51.4526 151.874 50.5303 153.595 49.477 155.375C42.942 166.422 38.9236 172.184 31.6733 181.798C30.4782 183.383 23.4674 192.135 22.4379 192.833ZM72.2629 112.606L71.933 113.275L72.2629 112.606ZM118.789 136.674C116.742 132.756 114.312 125.362 112.189 121.298C113.359 120.504 114.749 119.057 115.917 118.055C117.311 116.861 118.514 115.917 119.863 114.698C122.501 112.315 133.904 102.397 137.015 103.185C138.901 103.663 141.138 107.076 142.356 108.787C142.948 109.619 143.346 110.148 143.866 110.935L139.491 115.862C139.121 116.248 139.064 116.316 138.707 116.74L118.789 136.674ZM155.415 122.635C154.451 121.981 151.682 117.927 150.748 116.666C149.953 115.593 149.248 114.64 148.486 113.609C148.075 113.054 147.838 112.724 147.358 112.077L146.176 110.601L151.125 104.584C151.23 109.324 155.366 120.406 155.415 122.635ZM111.529 119.96C111.078 117.999 107.517 110.512 106.25 108.595C107.615 105.981 114.826 96.1548 116.911 93.6554C118.437 91.8258 121.192 88.2868 122.933 87.0366C124.614 85.8293 125.464 86.3597 127.566 88.3367C127.616 88.3836 127.687 88.4515 127.736 88.4993C129.807 90.5271 136.77 99.0811 137.267 101.241C135.053 101.241 134.627 101.591 133.196 102.466C127.714 105.813 122.617 110.788 117.608 114.753C115.39 116.509 113.819 118.407 111.529 119.96ZM88.4314 72.8271L88.1013 72.4928L88.4314 72.8271ZM101.3 43.4106L97.3987 39.6744C97.3474 39.6288 97.2721 39.566 97.2203 39.5209L93.033 35.7402C92.2051 35.0701 92.3869 35.6215 92.061 34.3849C94.0799 34.2147 94.9541 32.8868 97.0105 32.7136C97.0639 35.1396 100.561 40.1979 101.3 43.4106ZM88.1013 72.4928C87.0224 71.7607 86.5968 70.9175 85.7067 69.9047C84.8114 68.8859 84.1973 68.0604 83.3393 66.9545L71.6852 52.6872C68.8319 49.8393 70.8126 51.2845 66.5735 47.5028L53.5841 34.5836C52.6748 33.2297 52.4319 32.0408 53.7528 31.0144C54.5269 30.4132 56.3195 29.7371 57.7444 29.7049C60.2467 33.4906 63.1843 36.8942 65.5243 40.2087L76.9289 56.0661C78.1261 57.671 87.7168 71.0334 88.1013 72.4928ZM110.869 86.1982C110.313 85.8067 110.209 86.1504 110.209 85.1953C110.209 82.7109 110.543 73.6096 110.209 72.1584C109.004 72.1858 97.2773 76.4163 93.381 76.5041C93.0378 75.0125 90.343 71.8115 89.4234 70.485C88.0171 68.4565 86.6631 66.45 85.1816 64.4194C83.729 62.428 82.533 60.6205 81.0311 58.5959C76.529 52.5271 70.4875 43.7416 65.9174 38.1392C65.1068 37.1456 64.5706 36.3042 63.76 35.3105C62.9405 34.306 62.4212 33.5 61.6014 32.4833C60.688 31.35 60.0601 30.6455 59.3943 29.3707C60.8222 29.3385 61.2033 29.0264 63.0127 29.025C74.3549 29.017 76.4082 27.9064 89.3787 30.0826C90.017 30.1896 90.8025 30.3166 91.5825 30.5243C92.6707 30.8141 92.7776 31.0135 94.0409 31.0421V31.7107C93.2035 31.9083 92.1554 32.375 91.3477 32.6595C86.9193 34.2186 90.9314 36.4633 93.1917 38.2538C97.1397 41.3811 104.6 51.6408 104.6 46.0847C104.6 43.7942 99.4538 34.8261 98.6604 31.3765C100.061 31.0457 106.013 27.1287 107.675 26.1346C114.153 22.2597 128.663 9.44224 134.297 10.6512C133.98 14.5054 125.264 24.5461 121.632 34.9261C117.212 47.5642 116.598 50.1735 114.314 64.6168C113.744 68.2184 113.031 71.9081 112.571 75.2192L110.869 86.1982ZM17.4883 200.856L15.3749 208.743C14.6658 211.61 13.97 214.166 13.4754 217.182C12.8275 221.133 10.2413 232.821 17.9605 231.11C20.2741 230.597 22.7918 228.819 24.3432 227.523C28.8415 223.766 33.4653 219.278 37.1893 214.797C37.8971 213.946 38.848 212.442 39.5962 211.887C38.6323 216.079 29.5638 229.184 42.364 231.146L51.8026 231.968L61.1833 231.416C64.157 230.961 67.4325 231.243 70.4745 230.801L88.3356 228.504C99.7253 226.823 110.722 224.319 121.896 222.055C134.278 219.546 145.118 217.904 158.055 217.904C158.964 219.645 159.826 221.484 160.694 223.253C162.742 227.425 166.686 235.55 169.834 238.73C173.539 242.474 177.906 237.025 179.044 234.153C180.749 229.847 180.255 224.387 179.832 219.241C181.904 219.241 182.89 219.706 184.632 219.446C190.729 218.538 192.625 219.628 195.341 213.893C198.739 214.695 206.218 217.409 209.625 213.989C213.973 209.624 206.776 194.619 205.02 191.05C199.621 180.077 192.313 170.533 184.733 161.126L170.357 142.597C167.343 138.504 159.388 129.493 158.093 125.27C156.155 118.956 154.414 112.671 153.246 106.112C152.881 104.064 152.83 102.842 151.455 101.909C148.965 102.583 147.336 107.471 145.186 108.929C144.349 108.308 141.581 103.991 140.76 102.716L136.412 96.0899C133.897 92.4036 129.811 86.7208 125.845 84.7158C123.101 83.329 120.801 86.141 119.368 87.7886C118.807 88.4347 118.764 88.6279 118.202 89.2811L109.879 100.238C108.802 101.897 106.771 105.467 105.26 106.589C97.5946 91.9137 96.5861 97.9967 98.7469 100.484C100.303 102.274 104.669 106.866 103.696 109.311C103.523 109.747 102.55 111.217 102.294 111.607C101.79 112.373 101.405 112.951 100.838 113.809L72.99 158.136C72.0109 159.613 71.2155 161 70.2866 162.417L50.6174 193.302C47.2392 198.435 43.9876 203.379 40.2107 208.164C35.4284 214.222 30.4141 219.994 24.5198 225.027C13.0207 234.848 13.3971 226.399 15.3688 215.757C16.1202 211.702 17.0529 207.855 18.1871 204.238C18.921 201.898 19.5952 198.248 21.3608 196.422C22.1821 195.572 22.299 195.244 23.0184 194.424C35.5117 180.183 46.172 164.591 55.2179 147.82L57.759 143.04C61.2648 136.929 64.3564 130.471 67.7519 124.081L87.3498 89.432C88.0185 88.2272 88.0696 88.1626 87.7715 86.8669C86.0007 87.0162 85.4445 88.6341 84.6107 90.0161C75.1574 105.684 66.1964 119.171 55.3439 133.908C47.7799 144.18 40.6136 154.499 34.0907 165.528C30.7728 171.137 27.5028 176.91 24.8128 182.871C23.3841 186.036 22.092 189.026 20.8353 192.212C19.0597 196.713 18.7453 197.173 15.7602 200.442C12.1301 204.418 8.14375 208.487 4.05837 211.987C3.29178 212.644 3.12811 213.004 2.30976 213.559C3.31198 209.2 9.38455 199.936 11.3284 195.953L20.5983 178.267C23.7371 172.525 26.4829 166.252 29.3672 160.408C36.965 145.014 45.7083 130.494 55.9091 116.764C56.4648 116.016 56.7797 115.554 57.3381 114.869C64.2853 106.353 71.1501 97.0808 77.2125 87.8695C78.101 86.5198 78.9129 85.2273 79.8986 83.9052C80.9405 82.5074 81.8776 81.2758 82.8219 79.847C87.3491 79.847 91.9064 78.707 96.2703 77.7598C99.834 76.9862 105.25 76.1073 108.559 74.4984C108.559 75.7246 108.643 77.2765 108.511 78.4609C108.15 81.7188 107.896 86.5405 109.879 89.5411H111.529C113.096 87.1714 113.361 81.8311 113.784 78.7887C115.356 67.5017 116.394 55.8743 119.737 45.0393C122.354 36.5528 125.302 29.2479 129.937 22.2795C131.616 19.7555 138.127 12.0502 135.659 9.27409C133.693 7.06362 128.145 9.82129 126.269 10.8759C124.85 11.6739 123.661 12.5967 122.286 13.5255C115.72 17.9603 109.633 22.8297 102.811 26.8898C101.303 27.7871 98.3033 30.2662 96.6775 29.7394C95.913 29.4919 95.0411 28.9903 94.2872 28.787C88.4718 27.2182 76.0877 25.9182 70.0925 26.8376C67.9139 27.1718 65.9222 26.9065 63.6822 27.0291C61.6639 27.1396 59.9384 27.365 57.4144 27.365C56.8167 25.097 48.6327 16.119 46.9039 13.9448L35.0586 1.54251C32.8889 -0.689583 30.3889 -0.526511 32.3968 2.21001C33.4608 3.66004 35.5058 5.22623 35.9666 6.97414C37.2833 6.94424 37.1881 6.8198 37.9463 6.30548C39.117 8.07662 45.2651 14.1884 47.3261 16.8598C48.0421 17.7877 48.8214 18.7278 49.5803 19.5906C50.7929 20.9691 55.7336 26.6646 56.0946 28.0337C53.0464 28.2906 49.9689 30.6949 51.1604 34.0185C52.0852 36.5981 54.6476 38.4551 56.6568 40.1666C60.8877 43.7705 64.5838 47.498 68.5509 51.5168C69.5157 52.4942 70.4714 53.3471 71.3531 54.3605C76.5471 60.3316 82.1891 68.9775 86.8599 74.0848C87.8735 75.193 88.9515 75.9627 89.7512 77.1726C88.1701 77.306 86.1721 77.8412 84.4718 77.8412C84.81 77.3297 85.7521 76.296 84.6464 75.6521C82.9411 74.6589 81.8152 77.9627 81.2797 78.9529C79.181 82.8321 76.4445 85.8921 74.1413 89.7725C73.2687 91.2427 72.2999 92.5074 71.3424 93.9567C70.3794 95.4141 69.313 96.9106 68.3074 98.2362C66.2437 100.956 64.2124 103.522 62.1292 106.351C58.126 111.787 53.6783 117.095 49.8227 122.632C47.8528 125.461 46.0553 128.195 44.0834 131.192C39.314 138.439 37.4483 142.447 33.466 149.184L23.9484 168.29C23.2531 169.996 22.4783 171.357 21.6679 172.999C16.2037 184.07 10.3638 195.045 4.09877 205.677C2.55084 208.304 0 212.726 0 215.899C2.31384 216.445 3.47429 214.912 5.03334 213.309C7.33425 210.943 16.0071 201.861 17.4883 200.856Z" fill="#FEFEFE"/>
</svg>

<svg xmlns="http://www.w3.org/2000/svg" width="211" height="240" fill="none" xmlns:v="https://vecta.io/nano"><path fill-rule="evenodd" d="M160.034 217.904c6.123 0 12.185.862 17.82 1.337 0 2.12.33 2.79.33 5.015 0 3.827.538 7.955-1.895 10.783-1.308 1.52-1.87 2.408-4.045 2.922-3.507-2.38-10.223-15.556-12.21-20.057zm18.81-8.023c2.136 0 5.443.96 7.457 1.47l7.06 1.872c-.054 2.462-1.486 3.176-3.5 3.81-3.237 1.018-6.584.87-10.03.87 0-.976-.77-7.528-.99-8.023zm-23.428-1.002l16.45.048c1.302.146 3.658.507 4.998.62.053 2.432.66 4.173.66 8.023l-13.518-1.014c-1.6-.05-3.337.01-4.96.01l-3.196-6.457c-.206-.468-.334-1.006-.434-1.23zm-78.862 3.677c-3.617 0-6.063.208-9.534-1.038-2.292-.823-3.004-1.895-3.004-4.31 0-4.93 8.208-15.994 10.795-19.483l4.94-6.36c.69-.87 1.165-1.394 1.8-2.188l12.24-14.342c.684-.75 1.264-1.264 1.988-1.998l7.312-7.97c.886-1.16 13.782-14.754 15.37-15.183.418 1.818.997 2.545 1.645 4.016l13.394 26.88c1.453 2.46 2.448 4.934 3.908 7.406l13.783 26.484c1.16 1.926 2 2.973.887 3.337l-24.03 1.428c-7.17.557-17.38 1.482-24.114 1.645l-27.38 1.678zm-5.28-48.805l-.33.668.33-.668zm.33-.334l-.33.334.33-.334zm94.04-15.377c1.214 1.414 12.36 23.71 13.53 26.074l9.126 19.836c3.756 8.515 3.564 9.652 5.392 17.603-2.64-.06-10.16-3.01-14.848-3.01-1.477-6.423-2.064-19.666-5.013-31.692l-8.186-28.812zm0 0l-.38-.652.38.652zm-46.196-9.694l25.408-26.074c.487.932.825 1.376 1.384 2.275l13.482 22.444c1.84 3.214 6.967 19.444 8.162 23.822 3.984 14.6 6.646 24.082 7.998 40.034.213 2.515.65 4.55.65 7.363-5.036-1.19-15.742-.668-22.108-.668l-32.885-64.63c-.804-1.602-1.32-3.087-2.092-4.566zm-57.414 69.196c0 8.563 13.637 6.65 18.48 6.687 3.533.026 8.814-.492 11.968-.912l54.673-4.115c2.625.007 3.876-.323 6.28-.323l3.75 7.627c-33.457.2-61.327 13.767-105.71 13.767-3.087 0-8.365-.57-10.61-1.285-7.024-2.237-1.628-12.7.492-16.99 4.144-8.384 17.585-29.12 23.698-37.5l15.835-20.73c3.664-4.558 7.262-8.998 11.422-13.165 1.654-1.657 3.656-4.45 5.97-6.32l7.9-7.384c.578-.542.9-.97 1.477-1.513.75-.705 2.772-2.543 3.55-2.753.163 1.987 5.836 13.492 6.27 15.377-1.244 1.88-5.777 6.02-7.672 7.94L89.18 168.187c-.707.743-1.323 1.227-1.972 2.014l-3.477 4.166c-1.295 1.402-2.508 2.736-3.694 4.28-5.48 7.14-8.05 9.97-13.32 17.928-1.076 1.625-1.907 2.99-2.82 4.833-.63 1.275-1.866 4.486-1.866 6.133zm98.66-74.545l3.376 4.27c1.25 1.55 2.228 2.968 3.478 4.5l6.82 8.802c2.28 3.072 4.5 5.838 6.828 8.794 9.44 11.985 27.674 35.54 27.674 51.188 0 5.915-11.32 2.193-13.53 1.67 0-9.993-7.338-22.557-11.028-31.615l-9.324-18.968c-3.104-5.618-6.988-13.87-9.866-18.754l-3.655-6.993c-.39-1.107-.624-1.713-.774-2.894zm-3.3-4.01c.032-.033.098.053.098.1l-.098-.1zm-.66-1.003l.098.1c-.006-.007-.13-.067-.098-.1zm-1.32-5.348l.38.65-.38-.65zm-83.812 40.782c.35-1.518 20.272-32.858 22.7-36.504l2.228-3.426c1.51-2.284 7.444-12.268 8.728-13.22.704 3.062 4.887 8.516 4.95 11.366-1.125.304-6.466 5.756-7.968 6.97l-21.625 23.554-9.013 11.26zm-49.165 29.416c.342-4.16 13.074-27.39 16.165-32.094 5.53-8.412 10.2-15.742 16.262-23.973l3.488-4.823 6.7-9.258c1.163-1.594 2.12-3.107 3.296-4.683 1.004-1.346 2.737-4.153 3.583-4.727-.302 1.147-2.075 4.03-2.745 5.24-.54.978-.793 1.675-1.323 2.672-.553 1.04-.885 1.442-1.435 2.557l-13.948 26.318-3.005 5.312c-6.535 11.047-10.553 16.81-17.804 26.423-1.195 1.585-8.206 10.337-9.235 11.035zm49.825-80.227l-.33.67.33-.67zm46.526 24.068c-2.047-3.918-4.477-11.312-6.6-15.376 1.17-.794 2.56-2.24 3.728-3.243 1.394-1.194 2.597-2.138 3.946-3.357 2.638-2.383 14.04-12.3 17.152-11.513 1.886.478 4.123 3.89 5.34 5.602.592.832 1 1.36 1.5 2.148l-4.375 4.927c-.37.386-.427.454-.784.878l-19.918 19.934zm36.626-14.04c-.964-.654-3.733-4.708-4.667-5.97l-2.262-3.057-1.128-1.532-1.182-1.476 4.95-6.017c.105 4.74 4.24 15.822 4.3 18.05zm-43.886-2.675c-.45-1.96-4.012-9.448-5.28-11.365 1.365-2.614 8.576-12.44 10.66-14.94 1.526-1.83 4.28-5.37 6.022-6.62 1.68-1.207 2.53-.677 4.633 1.3l.17.163c2.07 2.028 9.034 10.582 9.53 12.742-2.214 0-2.64.35-4.07 1.225-5.482 3.347-10.58 8.322-15.588 12.287-2.218 1.756-3.79 3.654-6.08 5.207zM88.43 72.827l-.33-.334.33.334zM101.3 43.41l-3.9-3.736c-.05-.046-.127-.108-.178-.154l-4.187-3.78c-.828-.67-.646-.12-.972-1.355 2.02-.17 2.893-1.498 4.95-1.67.053 2.426 3.55 7.484 4.3 10.697zM88.1 72.493c-1.08-.732-1.504-1.575-2.395-2.588-.895-1.02-1.51-1.844-2.367-2.95L71.685 52.687c-2.853-2.848-.873-1.403-5.112-5.184l-12.99-12.92c-.91-1.354-1.152-2.543.17-3.57.774-.6 2.567-1.277 3.992-1.31 2.502 3.786 5.44 7.19 7.78 10.504L76.93 56.066C78.126 57.67 87.717 71.033 88.1 72.493zm22.768 13.705c-.556-.39-.66-.048-.66-1.003 0-2.484.334-11.586 0-13.037-1.205.027-12.932 4.258-16.828 4.346-.343-1.492-3.038-4.693-3.958-6.02l-4.242-6.066-4.15-5.823c-4.502-6.07-10.544-14.854-15.114-20.457-.81-.994-1.347-1.835-2.157-2.83-.82-1.005-1.34-1.8-2.16-2.827-.913-1.133-1.54-1.838-2.207-3.113 1.428-.032 1.81-.344 3.618-.346 11.342-.008 13.395-1.12 26.366 1.058.638.107 1.424.234 2.204.442 1.088.3 1.195.49 2.458.518v.67c-.837.198-1.885.664-2.693.95-4.428 1.56-.416 3.804 1.844 5.594C97.14 41.38 104.6 51.64 104.6 46.085c0-2.29-5.146-11.26-5.94-14.708 1.4-.33 7.353-4.248 9.015-5.242 6.478-3.875 20.988-16.692 26.622-15.483-.317 3.854-9.033 13.895-12.665 24.275-4.42 12.638-5.034 15.247-7.318 29.69L112.57 75.22l-1.702 10.98zm-93.38 114.658l-2.113 7.887c-.71 2.867-1.405 5.423-1.9 8.44-.648 3.95-3.234 15.64 4.485 13.928 2.314-.513 4.83-2.29 6.383-3.587 4.498-3.757 9.122-8.245 12.846-12.726.708-.85 1.66-2.355 2.407-2.9-.964 4.192-10.032 17.297 2.768 19.26l9.44.822 9.38-.552c2.974-.455 6.25-.173 9.29-.615l17.86-2.297c11.4-1.68 22.386-4.185 33.56-6.45 12.382-2.51 23.222-4.15 36.16-4.15.91 1.74 1.77 3.58 2.64 5.35 2.048 4.172 5.992 12.297 9.14 15.477 3.705 3.744 8.072-1.705 9.2-4.577 1.705-4.306 1.21-9.766.788-14.912 2.072 0 3.058.465 4.8.205 6.097-.908 7.993.182 10.71-5.553 3.398.802 10.877 3.516 14.284.096 4.348-4.365-2.85-19.37-4.605-22.94-5.4-10.973-12.707-20.517-20.287-29.924l-14.376-18.53c-3.014-4.093-10.97-13.104-12.264-17.327-1.938-6.314-3.68-12.6-4.847-19.158-.365-2.048-.416-3.27-1.79-4.203-2.5.674-4.12 5.562-6.27 7.02-.837-.62-3.605-4.938-4.426-6.213l-4.348-6.626c-2.515-3.686-6.6-9.37-10.567-11.374-2.744-1.387-5.044 1.425-6.477 3.073-.56.646-.604.84-1.166 1.492l-8.323 10.957c-1.077 1.66-3.108 5.23-4.62 6.35-7.665-14.675-8.674-8.592-6.513-6.105 1.556 1.8 5.922 6.382 4.95 8.827-.173.436-1.146 1.906-1.402 2.296l-1.456 2.202L73 158.136c-.98 1.477-1.774 2.864-2.703 4.28l-19.67 30.885c-3.378 5.133-6.63 10.077-10.407 14.862-4.782 6.058-9.797 11.83-15.69 16.863-11.5 9.82-11.123 1.372-9.15-9.27.75-4.055 1.684-7.902 2.818-11.52.734-2.34 1.408-6 3.174-7.816.82-.85.938-1.178 1.658-1.998 12.493-14.24 23.154-29.833 32.2-46.604l2.54-4.78c3.506-6.11 6.597-12.57 9.993-18.96l19.598-34.65c.67-1.205.72-1.27.422-2.565-1.77.15-2.327 1.767-3.16 3.15-9.453 15.668-18.414 29.155-29.267 43.892-7.564 10.272-14.73 20.59-21.253 31.62-3.318 5.61-6.588 11.382-9.278 17.343-1.43 3.165-2.72 6.155-3.977 9.34-1.776 4.5-2.1 4.96-5.075 8.23-3.63 3.976-7.616 8.045-11.702 11.545-.767.657-.93 1.017-1.75 1.572 1.002-4.36 7.075-13.623 9.02-17.606l9.27-17.686c3.14-5.742 5.885-12.015 8.77-17.86 7.598-15.394 16.34-29.914 26.542-43.644.556-.748.87-1.2 1.43-1.895 6.947-8.516 13.812-17.788 19.874-27 .888-1.35 1.7-2.642 2.686-3.964 1.042-1.398 1.98-2.63 2.923-4.058 4.527 0 9.085-1.14 13.448-2.087 3.564-.774 8.98-1.653 12.29-3.26 0 1.226.084 2.778-.048 3.962-.36 3.258-.615 8.08 1.368 11.08h1.65c1.567-2.37 1.832-7.7 2.255-10.752 1.572-11.287 2.6-22.914 5.953-33.75 2.617-8.486 5.565-15.79 10.2-22.76 1.68-2.524 8.2-10.23 5.722-13.005-1.966-2.2-7.514.547-9.4 1.602-1.42.798-2.608 1.72-3.983 2.65-6.566 4.435-12.653 9.304-19.475 13.364-1.508.897-4.508 3.376-6.134 2.85-.764-.247-1.636-.75-2.4-.952-5.815-1.57-18.2-2.87-24.195-1.95-2.18.334-4.17.07-6.4.192-2.018.11-3.744.336-6.268.336-.598-2.268-8.782-11.246-10.5-13.42L35.06 1.543C32.89-.7 30.39-.527 32.397 2.2c1.064 1.45 3.11 3.016 3.57 4.764 1.317-.03 1.22-.154 1.98-.67 1.17 1.77 7.32 7.883 9.38 10.554.716.928 1.495 1.868 2.254 2.73 1.213 1.38 6.153 7.074 6.514 8.443-3.048.257-6.126 2.66-4.934 5.985.925 2.58 3.487 4.437 5.496 6.148 4.23 3.604 7.927 7.33 11.894 11.35.965.977 1.92 1.83 2.802 2.844 5.194 5.97 10.836 14.617 15.507 19.724 1.014 1.108 2.092 1.878 2.89 3.088-1.58.133-3.58.67-5.28.67.338-.51 1.28-1.545.175-2.19-1.705-.993-2.83 2.31-3.367 3.3-2.1 3.88-4.835 6.94-7.138 10.82-.873 1.47-1.84 2.735-2.8 4.184-.963 1.457-2.03 2.954-3.035 4.28l-6.178 8.115c-4.003 5.436-8.45 10.744-12.306 16.28-1.97 2.83-3.767 5.563-5.74 8.56-4.77 7.247-6.635 11.255-10.617 17.992L23.948 168.3c-.695 1.706-1.47 3.067-2.28 4.71-5.464 11.07-11.304 22.046-17.57 32.678C2.55 208.304 0 212.726 0 215.9c2.314.546 3.474-.987 5.033-2.6 2.3-2.366 10.974-11.448 12.455-12.453z" fill="#fefefe"/></svg>
